src/img/find-position.svg

<svg fill="none" height="24" viewBox="0 0 24 24" width="24" xmlns="http://www.w3.org/2000/svg"><path clip-rule="evenodd" d="m13 1h-2v2.55848c-3.88925.45783-6.98368 3.55202-7.44152 7.44152h-2.55848v2h2.55847c.45781 3.8895 3.55201 6.9837 7.44153 7.4415v2.5585h2v-2.5585c3.8895-.4578 6.9837-3.552 7.4415-7.4415h2.5585v-2h-2.5585c-.4578-3.88952-3.552-6.98372-7.4415-7.44153zm6.4336 10c-.4465-3.33754-3.0962-5.98708-6.4336-6.43362v2.43362h-2v-2.43361c-3.33734.44657-5.98704 3.09627-6.43361 6.43361h2.43361v2h-2.43361c.44657 3.3373 3.09627 5.987 6.43361 6.4336v-2.4336h2v2.4336c3.3374-.4465 5.9871-3.0961 6.4336-6.4336h-2.4336v-2zm-3.9336 1c0 1.933-1.567 3.5-3.5 3.5s-3.5-1.567-3.5-3.5 1.567-3.5 3.5-3.5 3.5 1.567 3.5 3.5z" fill="#333" fill-rule="evenodd"/></svg>

<svg width="24" height="24" viewBox="0 0 24 24" fill="none" 
  xmlns="http://www.w3.org/2000/svg">
  <path fill-rule="evenodd" clip-rule="evenodd" d="M13 1H11V3.55848C7.11075 4.01631 4.01632 7.1105 3.55848 11H1V13H3.55847C4.01628 16.8895 7.11048 19.9837 11 20.4415V23H13V20.4415C16.8895 19.9837 19.9837 16.8895 20.4415 13H23V11H20.4415C19.9837 7.11048 16.8895 4.01628 13 3.55847V1ZM19.4336 11C18.9871 7.66246 16.3374 5.01292 13 4.56638V7H11V4.56639C7.66266 5.01296 5.01296 7.66266 4.56639 11H7V13H4.56639C5.01296 16.3373 7.66266 18.987 11 19.4336V17H13V19.4336C16.3374 18.9871 18.9871 16.3375 19.4336 13H17V11H19.4336ZM15.5 12C15.5 13.933 13.933 15.5 12 15.5C10.067 15.5 8.5 13.933 8.5 12C8.5 10.067 10.067 8.5 12 8.5C13.933 8.5 15.5 10.067 15.5 12Z" fill="#333333"/>
</svg>
